carriers/fastwayCouriers.svg

<svg width="128" height="64" viewBox="0 0 128 64" fill="none" xmlns="http://www.w3.org/2000/svg">
<rect width="128" height="64" rx="6" fill="white"/>
<path d="M24.5838 21.464L24.2878 23.088H28.1598L27.0358 27.408H23.5278L21.5078 38.912C21.1078 41.228 20.1998 42.752 17.9798 44.952L17.6998 45.216L14.3398 42.104L14.6358 41.808C16.0758 40.332 16.2358 39.624 16.4758 38.264L18.4118 27.392H16.2758L17.0198 23.072H19.1558L19.4558 21.448C20.0518 18.252 21.1878 16.4 25.2158 16.4C26.5675 16.3996 27.9098 16.624 29.1878 17.064L29.5318 17.196L28.4238 21.364L28.0238 21.216C27.2478 20.9616 26.4399 20.8175 25.6238 20.788C24.7798 20.788 24.6958 20.968 24.5958 21.464M47.5878 26.976C48.8175 27.014 50.0387 27.1925 51.2278 27.508L51.6278 27.624L52.4878 23.624L52.1398 23.508C50.6643 23.0526 49.1319 22.8075 47.5878 22.78C43.4158 22.78 42.1758 23.676 41.5478 27.18C41.1478 29.528 41.2998 30.836 44.5918 32.576C46.2798 33.468 46.4318 33.716 46.3638 34.064C46.2638 34.676 46.2318 34.864 45.1238 34.864C43.7916 34.8555 42.4723 34.6019 41.2318 34.116L40.8318 33.968L39.8038 37.892L40.1198 38.024C41.6324 38.6544 43.2495 38.9963 44.8878 39.032C49.6038 39.032 50.6958 37.476 51.3238 34C51.8038 31.32 51.0118 30.576 47.6158 28.756C46.2758 28.044 46.2918 27.992 46.3598 27.556C46.4758 27.044 46.4758 26.992 47.5838 26.992M59.7838 27.356H63.0598L64.1198 23.104H60.5438L61.2878 18.848L56.0318 19.56L55.4358 23.088H53.2518L52.5078 27.34H54.7078L53.3198 35.152C53.2798 35.3819 53.2571 35.6146 53.2518 35.848C53.2518 37.884 54.6118 39.048 56.9758 39.048C58.6935 39.026 60.3803 38.5882 61.8918 37.772L62.1758 37.624L61.1158 33.9L60.7158 34.064C60.0346 34.388 59.2998 34.5846 58.5478 34.644V34.644C58.5478 34.58 58.5798 34.48 58.5998 34.412L59.7838 27.356ZM41.5878 23.848L39.0038 38.744H34.6638V36.744C33.3558 37.588 31.7838 39.044 30.1598 39.044C28.7038 39.044 27.6918 38.68 27.0478 37.9C26.2718 36.972 26.0878 35.5 26.4678 33.284L27.1638 29.284C27.8638 25.404 29.5158 22.8 35.4438 22.8C37.4083 22.8379 39.3579 23.1502 41.2358 23.728L41.5878 23.848ZM31.5358 34.44C31.5358 34.44 31.6198 34.524 31.9358 34.524C32.7798 34.524 33.8198 34.06 34.8318 33.248L35.8558 27.356C35.4579 27.3043 35.0571 27.2776 34.6558 27.276C32.7878 27.276 32.5558 28.036 32.2558 29.476L31.4918 33.876C31.4278 34.276 31.4918 34.404 31.4918 34.42M64.7798 43.076C64.4399 42.9785 64.0893 42.9235 63.7358 42.912C62.9358 42.912 62.6598 43.144 62.5358 43.924L62.2038 45.824C62.1959 45.8904 62.1959 45.9575 62.2038 46.024C62.2038 46.24 62.3038 46.388 62.6358 46.388C63.1958 46.3454 63.7467 46.2228 64.2718 46.024L64.4038 47.132C63.8182 47.4215 63.1769 47.5812 62.5238 47.6C61.3238 47.6 60.8318 47.104 60.8318 46.208C60.834 46.0255 60.8514 45.8435 60.8838 45.664L61.2158 43.776C61.4958 42.22 62.2398 41.776 63.7958 41.776C64.2522 41.7798 64.7048 41.8582 65.1358 42.008L64.7798 43.076ZM65.3398 45.744C65.3437 45.5941 65.3557 45.4445 65.3758 45.296L65.6238 43.956C65.8718 42.58 66.5478 41.752 68.4238 41.752C69.8638 41.752 70.5438 42.552 70.5438 43.54C70.5411 43.6738 70.5304 43.8074 70.5118 43.94L70.2438 45.428C70.0118 46.736 69.3998 47.564 67.4438 47.564C65.9718 47.564 65.3398 46.736 65.3398 45.744M69.1878 43.892C69.1959 43.8095 69.1959 43.7264 69.1878 43.644C69.1878 43.18 68.9078 42.932 68.2598 42.932C68.1104 42.9149 67.959 42.9281 67.8147 42.971C67.6705 43.0139 67.5365 43.0855 67.4207 43.1816C67.3048 43.2776 67.2096 43.3961 67.1407 43.5298C67.0719 43.6636 67.0307 43.8099 67.0198 43.96L66.7558 45.464C66.7475 45.5464 66.7475 45.6295 66.7558 45.712C66.7558 46.16 67.0038 46.44 67.6798 46.44C68.3558 46.44 68.7918 46.128 68.9078 45.464L69.1878 43.892ZM72.4998 45.892C72.487 45.9403 72.4802 45.99 72.4798 46.04C72.4798 46.188 72.5478 46.288 72.7638 46.288C73.3567 46.169 73.9206 45.9353 74.4238 45.6L75.0518 42L76.4758 41.804L75.4838 47.496H74.3078V46.916C73.6189 47.3122 72.8487 47.5461 72.0558 47.6C71.2758 47.6 71.0278 47.088 71.0278 46.492C71.0251 46.307 71.0479 46.1226 71.0958 45.944L71.7918 42L73.2158 41.804L72.4998 45.892ZM80.3118 43.044C79.6478 43.408 79.2358 43.672 78.6398 44.036L78.0278 47.496H76.6518L77.5878 42L78.7878 41.784L78.7398 42.584C79.1909 42.2604 79.6733 41.983 80.1798 41.756L80.3118 43.044ZM81.2238 42L82.6478 41.804L81.6558 47.496H80.2838L81.2238 42ZM81.6558 39.6L83.0798 39.404L82.7878 40.964L81.3678 41.176L81.6558 39.6ZM84.3878 45.844C84.3198 46.16 84.3198 46.44 84.8158 46.44C85.5702 46.3775 86.3032 46.1581 86.9678 45.796L87.2678 46.856C86.4668 47.3208 85.5617 47.5767 84.6358 47.6C83.1438 47.6 82.8478 46.772 83.0638 45.6L83.3598 43.896C83.6078 42.572 84.2198 41.76 85.9078 41.76C86.9838 41.76 87.6958 42.308 87.6958 43.216C87.6958 44.212 87.0358 44.792 85.5118 45.272C84.8318 45.484 84.7118 45.52 84.4358 45.584L84.3878 45.844ZM86.3878 43.28C86.3878 43.032 86.1758 42.848 85.8118 42.848C85.5551 42.8431 85.3061 42.9364 85.1158 43.1089C84.9255 43.2813 84.8082 43.5199 84.7878 43.776L84.6878 44.356C84.8878 44.308 84.9678 44.272 85.5318 44.108C86.0958 43.944 86.3878 43.66 86.3878 43.28ZM91.7678 43.032C91.1078 43.396 90.6918 43.66 90.0958 44.024L89.4838 47.484H88.1118L89.0718 42L90.2718 41.784L90.2038 42.584C90.6554 42.2613 91.1378 41.9839 91.6438 41.756L91.7678 43.032ZM91.6678 47.236L91.9358 46.192C92.4405 46.3732 92.9717 46.4692 93.5078 46.476C94.1198 46.476 94.2358 46.376 94.3078 45.976C94.3798 45.576 94.3078 45.496 93.4838 45.084C92.2838 44.504 92.1758 44.076 92.3238 43.212C92.5238 42.088 92.9678 41.74 94.4438 41.74C95.0119 41.7536 95.5751 41.8493 96.1158 42.024L95.8838 43.08C95.4082 42.9472 94.9176 42.8759 94.4238 42.868C93.8798 42.868 93.7158 42.868 93.6478 43.296C93.5798 43.724 93.6798 43.76 94.2918 44.096C95.5838 44.792 95.8158 45.02 95.6678 45.9C95.4518 47.156 95.0198 47.588 93.4478 47.588C92.8347 47.5908 92.2271 47.4726 91.6598 47.24" fill="#00498F"/>
<path d="M84.7879 25.536C84.7445 26.877 84.4473 28.1977 83.9119 29.428L80.7639 38.712H75.1639L74.0359 32.752L70.7879 38.712H65.3359V38.312C65.3608 33.5332 65.0346 28.759 64.3599 24.028L64.3079 23.628L69.2079 22.868L69.2759 23.268C69.7053 25.656 69.9208 28.0776 69.9199 30.504C69.9199 30.904 69.9199 31.304 69.9199 31.704L72.7199 26.308L72.1399 23.68L76.9399 22.948L78.4279 31.48L79.5879 27.028C79.6888 26.5544 79.7437 26.0721 79.7519 25.588C79.7486 25.0767 79.6705 24.5686 79.5199 24.08L79.4039 23.68L84.3879 22.724L84.4679 23.104C84.6593 23.9011 84.7653 24.7164 84.7839 25.536M99.1879 23.816L96.6079 38.712H92.2839V36.712C90.9759 37.556 89.4039 39.012 87.7799 39.012C86.3239 39.012 85.3159 38.648 84.6679 37.872C83.8919 36.944 83.7079 35.472 84.0879 33.252L84.7839 29.252C85.4639 25.364 87.1199 22.764 93.0439 22.764C95.0091 22.7937 96.9597 23.1062 98.8359 23.692L99.1879 23.816ZM89.1519 34.4C89.1719 34.4 89.2359 34.484 89.5519 34.484C90.3959 34.484 91.4399 34.02 92.4479 33.208L93.4759 27.316C93.0782 27.2615 92.6773 27.2335 92.2759 27.232C90.4039 27.232 90.1719 27.996 89.8759 29.436L89.1119 33.836C89.0479 34.236 89.1119 34.364 89.1119 34.38M113.38 23.044L113.28 22.696L108.312 23.424L108.412 23.852C108.664 24.8237 108.601 25.8504 108.232 26.784L105.732 32.724L104.764 22.84L99.6479 23.568L101.8 38.712H102.708C101.832 39.756 100.672 40.5 98.9839 41.112L98.6199 41.244L99.9639 45.384L100.344 45.268C105.028 43.76 106.584 41.956 108.344 38.468L113.144 27.824C113.5 26.919 113.674 25.9525 113.656 24.98C113.68 24.333 113.608 23.6861 113.444 23.06" fill="#CD1343"/>
</svg>

<svg xmlns="http://www.w3.org/2000/svg" width="128" height="64" fill="none"><rect width="128" height="64" fill="#fff" rx="6"/><path fill="#00498F" d="m24.584 21.464-.296 1.624h3.872l-1.124 4.32h-3.508l-2.02 11.504c-.4 2.316-1.308 3.84-3.528 6.04l-.28.264-3.36-3.112.296-.296c1.44-1.476 1.6-2.184 1.84-3.544l1.936-10.872h-2.136l.744-4.32h2.136l.3-1.624c.596-3.196 1.732-5.048 5.76-5.048 1.351 0 2.694.224 3.972.664l.344.132-1.108 4.168-.4-.148a8.715 8.715 0 0 0-2.4-.428c-.844 0-.928.18-1.028.676m22.992 5.512c1.23.038 2.45.216 3.64.532l.4.116.86-4-.348-.116a16.427 16.427 0 0 0-4.552-.728c-4.172 0-5.412.896-6.04 4.4-.4 2.348-.248 3.656 3.044 5.396 1.688.892 1.84 1.14 1.772 1.488-.1.612-.132.8-1.24.8a10.861 10.861 0 0 1-3.892-.748l-.4-.148-1.028 3.924.316.132c1.512.63 3.13.972 4.768 1.008 4.716 0 5.808-1.556 6.436-5.032.48-2.68-.312-3.424-3.708-5.244-1.34-.712-1.324-.764-1.256-1.2.116-.512.116-.564 1.224-.564m12.2.364h3.276l1.06-4.252h-3.576l.744-4.256-5.256.712-.596 3.528h-2.184l-.744 4.252h2.2l-1.388 7.812a4.68 4.68 0 0 0-.068.696c0 2.036 1.36 3.2 3.724 3.2a10.633 10.633 0 0 0 4.916-1.276l.284-.148-1.06-3.724-.4.164a6.18 6.18 0 0 1-2.168.58c0-.064.032-.164.052-.232l1.184-7.056Zm-18.196-3.508-2.584 14.896h-4.34v-2c-1.308.844-2.88 2.3-4.504 2.3-1.456 0-2.468-.364-3.112-1.144-.776-.928-.96-2.4-.58-4.616l.696-4c.7-3.88 2.352-6.484 8.28-6.484 1.964.038 3.914.35 5.792.928l.352.12ZM31.536 34.44s.084.084.4.084c.844 0 1.884-.464 2.896-1.276l1.024-5.892a9.61 9.61 0 0 0-1.2-.08c-1.868 0-2.1.76-2.4 2.2l-.764 4.4c-.064.4 0 .528 0 .544m33.288 8.656a4.292 4.292 0 0 0-1.044-.164c-.8 0-1.076.232-1.2 1.012l-.332 1.9a.847.847 0 0 0 0 .2c0 .216.1.364.432.364a5.88 5.88 0 0 0 1.636-.364l.132 1.108c-.586.29-1.227.45-1.88.468-1.2 0-1.692-.496-1.692-1.392.002-.182.02-.364.052-.544l.332-1.888c.28-1.556 1.024-2 2.58-2 .456.004.909.082 1.34.232l-.356 1.068Zm.56 2.668c.004-.15.016-.3.036-.448l.248-1.34c.248-1.376.924-2.204 2.8-2.204 1.44 0 2.12.8 2.12 1.788a3.37 3.37 0 0 1-.032.4l-.268 1.488c-.232 1.308-.844 2.136-2.8 2.136-1.472 0-2.104-.828-2.104-1.82m3.848-1.852a1.269 1.269 0 0 0 0-.248c0-.464-.28-.712-.928-.712a1.116 1.116 0 0 0-1.24 1.028l-.264 1.504a1.238 1.238 0 0 0 0 .248c0 .448.248.728.924.728s1.112-.312 1.228-.976l.28-1.572Zm3.312 2a.596.596 0 0 0-.02.148c0 .148.068.248.284.248a4.64 4.64 0 0 0 1.66-.688l.628-3.6 1.424-.196-.992 5.692h-1.176v-.58c-.69.396-1.46.63-2.252.684-.78 0-1.028-.512-1.028-1.108-.003-.185.02-.37.068-.548L71.792 42l1.424-.196-.716 4.088Zm7.812-2.848c-.664.364-1.076.628-1.672.992l-.612 3.46h-1.376L77.588 42l1.2-.216-.048.8a8.28 8.28 0 0 1 1.44-.828l.132 1.288ZM81.224 42l1.424-.196-.992 5.692h-1.372l.94-5.496Zm.432-2.4 1.424-.196-.292 1.56-1.42.212.288-1.576Zm2.732 6.244c-.068.316-.068.596.428.596a5.436 5.436 0 0 0 2.152-.644l.3 1.06a5.52 5.52 0 0 1-2.632.744c-1.492 0-1.788-.828-1.572-2l.296-1.704c.248-1.324.86-2.136 2.548-2.136 1.076 0 1.788.548 1.788 1.456 0 .996-.66 1.576-2.184 2.056-.68.212-.8.248-1.076.312l-.048.26Zm2-2.564c0-.248-.212-.432-.576-.432a1.008 1.008 0 0 0-1.024.928l-.1.58c.2-.048.28-.084.844-.248.564-.164.856-.448.856-.828Zm5.38-.248c-.66.364-1.076.628-1.672.992l-.612 3.46h-1.372l.96-5.484 1.2-.216-.068.8c.451-.323.934-.6 1.44-.828l.124 1.276Zm-.1 4.204.268-1.044a4.833 4.833 0 0 0 1.572.284c.612 0 .728-.1.8-.5.072-.4 0-.48-.824-.892-1.2-.58-1.308-1.008-1.16-1.872.2-1.124.644-1.472 2.12-1.472.568.014 1.131.11 1.672.284l-.232 1.056a5.772 5.772 0 0 0-1.46-.212c-.544 0-.708 0-.776.428-.068.428.032.464.644.8 1.292.696 1.524.924 1.376 1.804-.216 1.256-.648 1.688-2.22 1.688a4.657 4.657 0 0 1-1.788-.348"/><path fill="#CD1343" d="M84.788 25.536a10.614 10.614 0 0 1-.876 3.892l-3.148 9.284h-5.6l-1.128-5.96-3.248 5.96h-5.452v-.4a97.572 97.572 0 0 0-.976-14.284l-.052-.4 4.9-.76.068.4c.43 2.388.645 4.81.644 7.236v1.2l2.8-5.396-.58-2.628 4.8-.732 1.488 8.532 1.16-4.452c.1-.474.156-.956.164-1.44a5.234 5.234 0 0 0-.232-1.508l-.116-.4 4.984-.956.08.38c.191.797.297 1.612.316 2.432m14.404-1.72-2.58 14.896h-4.324v-2c-1.308.844-2.88 2.3-4.504 2.3-1.456 0-2.464-.364-3.112-1.14-.776-.928-.96-2.4-.58-4.62l.696-4c.68-3.888 2.336-6.488 8.26-6.488 1.965.03 3.916.342 5.792.928l.352.124ZM89.152 34.4c.02 0 .084.084.4.084.844 0 1.888-.464 2.896-1.276l1.028-5.892a9.089 9.089 0 0 0-1.2-.084c-1.872 0-2.104.764-2.4 2.204l-.764 4.4c-.064.4 0 .528 0 .544m24.268-11.336-.1-.348-4.968.728.1.428a4.74 4.74 0 0 1-.18 2.932l-2.5 5.94-.968-9.884-5.116.728 2.152 15.144h.908c-.876 1.044-2.036 1.788-3.724 2.4l-.364.132 1.344 4.14.38-.116c4.684-1.508 6.24-3.312 8-6.8l4.8-10.644c.356-.905.53-1.872.512-2.844a6.61 6.61 0 0 0-.212-1.92"/></svg>
